assets/logos/netflix-color.svg

<?xml version="1.0" encoding="UTF-8" standalone="no"?>
<svg
   width="300"
   height="90"
   viewBox="0 0 300 89.999999"
   version="1.1"
   id="svg2170"
   sodipodi:docname="netflix-color.svg"
   inkscape:version="1.1.1 (3bf5ae0d25, 2021-09-20)"
   xmlns:inkscape="http://www.inkscape.org/namespaces/inkscape"
   xmlns:sodipodi="http://sodipodi.sourceforge.net/DTD/sodipodi-0.dtd"
   xmlns="http://www.w3.org/2000/svg"
   xmlns:svg="http://www.w3.org/2000/svg">
  <defs
     id="defs2174" />
  <sodipodi:namedview
     id="namedview2172"
     pagecolor="#ffffff"
     bordercolor="#666666"
     borderopacity="1.0"
     inkscape:pageshadow="2"
     inkscape:pageopacity="0.0"
     inkscape:pagecheckerboard="0"
     showgrid="false"
     inkscape:zoom="1.8785312"
     inkscape:cx="167.6842"
     inkscape:cy="75.324807"
     inkscape:window-width="1866"
     inkscape:window-height="1016"
     inkscape:window-x="54"
     inkscape:window-y="27"
     inkscape:window-maximized="1"
     inkscape:current-layer="svg2170" />
  <path
     d="M 41.470408,80.241119 C 36.966628,81.032 32.383612,81.269118 27.642714,81.900653 L 13.182315,39.54804 V 83.718363 C 8.6785339,84.192307 4.569755,84.824427 0.3028,85.456546 V 4.543454 H 12.313662 L 28.748777,50.452837 V 4.543454 H 41.470408 Z M 66.360784,34.174728 c 4.899367,0 12.405863,-0.237118 16.909644,-0.237118 v 12.642398 c -5.610429,0 -12.168453,0 -16.909644,0.237117 V 65.623422 C 73.78863,65.149477 81.216185,64.516773 88.722388,64.279655 V 76.447523 L 53.717802,79.213705 V 4.543454 H 88.722388 V 17.186143 H 66.360784 Z M 135.73726,17.186436 h -13.11664 v 58.156193 c -4.26695,0 -8.53391,0 -12.6421,0.157591 V 17.186436 H 96.861882 V 4.543454 h 38.875948 z m 20.54418,16.119347 h 17.30494 V 45.94818 H 156.28144 V 74.631567 H 143.87499 V 4.543454 h 35.32152 v 12.642689 h -22.91507 z m 43.45926,30.263103 c 7.19073,0.157591 14.45981,0.711646 21.49266,1.106063 V 77.159754 C 209.93414,76.448107 198.63464,75.737923 187.0983,75.50022 V 4.543454 h 12.6424 z m 32.15975,14.460106 c 4.02984,0.23741 8.29679,0.474528 12.40557,0.947887 V 4.543454 H 231.90045 Z M 299.6972,4.543454 283.65651,43.024699 299.6972,85.456546 c -4.74148,-0.632119 -9.48238,-1.501357 -14.22357,-2.291653 l -9.0865,-23.388434 -9.2441,21.492659 c -4.58388,-0.790881 -9.00872,-1.027999 -13.59087,-1.660119 L 269.8294,42.550171 255.13188,4.543454 h 13.59028 l 8.2968,21.255541 8.85026,-21.255541 z"
     fill="#d81f26"
     id="path2168"
     style="stroke-width:0.292378" />
</svg>

<svg xmlns="http://www.w3.org/2000/svg" width="300" height="90" xmlns:v="https://vecta.io/nano"><path d="M41.47 80.241c-4.504.791-9.087 1.028-13.828 1.66l-14.46-42.353v44.17c-4.504.474-8.613 1.106-12.88 1.738V4.543h12.011l16.435 45.909V4.543H41.47zm24.89-46.066l16.91-.237V46.58l-16.91.237v18.806l22.362-1.344v12.168l-35.005 2.766V4.543h35.005v12.643H66.361zm69.376-16.988h-13.117v58.156l-12.642.158V17.186H96.862V4.543h38.876zm20.544 16.119h17.305v12.642h-17.305v28.683h-12.406V4.543h35.322v12.643h-22.915zm43.459 30.263c7.191.158 14.46.712 21.493 1.106V77.16l-34.135-1.66V4.543h12.642zm32.16 14.46c4.03.237 8.297.475 12.406.948V4.543H231.9zm67.797-73.486l-16.041 38.481 16.041 42.432c-4.741-.632-9.482-1.501-14.224-2.292l-9.086-23.388-9.244 21.493c-4.584-.791-9.009-1.028-13.591-1.66l16.277-37.059-14.698-38.007h13.59l8.297 21.256 8.85-21.256z" fill="#d81f26"/></svg>
